lib/preview/nrk-logo-preview-nrk-mp3-title-below.svg

<svg width="32" height="32" viewBox="0 0 32 32" fill="none" xmlns="http://www.w3.org/2000/svg">
<path fill-rule="evenodd" clip-rule="evenodd" d="M0 0H32V32H0V0ZM11.2709 14.9303C11.5557 14.7417 11.8892 14.6401 12.2307 14.6378H14.3406V25.2804H11.4158V18.0647L8.90936 19.9507L6.40293 18.0647V21.8314L3.49501 24.017V14.6378H5.5871C5.92865 14.6401 6.26216 14.7417 6.54695 14.9303C6.78847 15.0801 8.75869 16.7525 8.90892 16.8801C9.0587 16.7512 11.0294 15.0788 11.2709 14.9303ZM14.7637 14.6378H18.0492L18.2465 14.9597L18.2467 14.9601L18.2473 14.9611L18.2479 14.9621C19.6083 17.1823 19.6186 17.1991 19.8413 17.5777C19.9469 17.7136 20.0049 17.8804 20.0065 18.0525C20.0081 18.2247 19.9532 18.3925 19.8502 18.5304C19.6335 18.8903 18.0492 21.4809 18.0492 21.4809H14.7637L16.6635 18.3665C16.7305 18.2752 16.7657 18.1644 16.7635 18.0511C16.7613 17.9379 16.722 17.8285 16.6515 17.7398C16.6303 17.7022 14.7637 14.6378 14.7637 14.6378ZM28.3391 16.4016C28.2287 16.2132 27.2507 14.6378 27.2507 14.6378H20.2189L21.7548 17.2134H25.4582L23.9293 19.7185L25.6341 22.5799L23.9905 25.2831H26.9924C27.3274 24.7348 27.7776 23.9784 28.072 23.4839C28.2016 23.2661 28.301 23.0992 28.347 23.023C28.4505 22.8848 28.5057 22.7164 28.5042 22.5437C28.5027 22.371 28.4445 22.2036 28.3386 22.0672C28.2622 21.937 28.0176 21.5445 27.7325 21.0869C27.4557 20.6428 27.1408 20.1374 26.9042 19.7509C26.9042 19.7509 28.1968 17.6087 28.3475 17.3579C28.4511 17.2196 28.5064 17.0511 28.5049 16.8783C28.5033 16.7055 28.4451 16.538 28.3391 16.4016ZM21.5745 20.105C21.1118 20.861 20.3376 22.1275 20.1927 22.3747C20.0907 22.5061 20.0346 22.6673 20.0331 22.8335C20.0316 22.9998 20.0847 23.162 20.1843 23.2952C20.3292 23.5362 21.1096 24.8129 21.5745 25.5734C22.0393 24.8129 22.8193 23.5349 22.9646 23.2952C23.0642 23.162 23.1173 22.9998 23.1158 22.8335C23.1143 22.6673 23.0582 22.5061 22.9562 22.3747C22.8113 22.1275 22.0389 20.861 21.5745 20.105ZM7.58296 7.00475V12.995H9.54896V7.00475H7.58296ZM13.3544 12.995L12.2238 7.95813C12.1694 7.6915 12.0249 7.45171 11.8146 7.27898C11.6047 7.09869 11.3362 7.00116 11.0595 7.00475H9.85271L11.2028 12.995H13.3544ZM13.6497 7.00475V12.995H15.6157V7.00475H13.6497ZM16.4975 9.12243C16.6803 9.22938 16.8887 9.28479 17.1005 9.28276C17.1005 9.28276 17.1004 9.28276 17.1004 9.28276H17.1007C17.1006 9.28276 17.1005 9.28276 17.1005 9.28276C17.3112 9.28523 17.5184 9.22975 17.6997 9.12243C17.8783 9.01725 18.0266 8.86753 18.1301 8.68792C18.2371 8.50501 18.2925 8.29659 18.2905 8.08471C18.2928 7.87412 18.2373 7.66693 18.1301 7.48568C18.0255 7.30802 17.8774 7.15992 17.6997 7.05539C17.5184 6.94826 17.3112 6.8928 17.1007 6.89507C16.8888 6.89314 16.6804 6.94854 16.4975 7.05539C16.318 7.15902 16.1683 7.30724 16.0629 7.48568C15.9555 7.66688 15.9001 7.8741 15.9025 8.08471C15.9004 8.2966 15.9558 8.50507 16.0629 8.68792C16.1672 8.86832 16.3171 9.01817 16.4975 9.12243ZM18.5943 7.00475V12.995H20.5604V7.00475H18.5943ZM23.176 10.485C23.0972 10.353 23.055 10.2841 23.0494 10.2783H23.0491C22.9888 10.1975 22.9536 10.1006 22.948 9.99988C22.9516 9.90392 22.9807 9.81068 23.0324 9.72977L24.7033 7.00461H22.5432C22.4083 7.22416 22.2858 7.42384 22.176 7.60364C22.0667 7.78363 21.9501 7.97629 21.8261 8.18159C21.7022 8.38688 21.5797 8.58797 21.4588 8.78483C21.3378 8.9817 21.2324 9.15182 21.1424 9.29525C21.0524 9.43868 20.9905 9.53854 20.9567 9.59478C20.8767 9.71553 20.8302 9.85529 20.8219 9.99988C20.8323 10.1505 20.8817 10.2959 20.9652 10.4217C20.9988 10.4724 21.0593 10.5709 21.1467 10.717C21.2337 10.8631 21.3377 11.0332 21.4588 11.2274C21.5798 11.4217 21.7023 11.6214 21.8261 11.8265C21.9497 12.0318 22.0663 12.223 22.176 12.4002C22.2857 12.5774 22.4081 12.7756 22.5432 12.995H24.7033C24.5455 12.7364 24.4048 12.5044 24.2814 12.299C24.1574 12.0936 24.0252 11.8756 23.8846 11.6451C23.7441 11.4146 23.6105 11.1966 23.484 10.9912C23.3575 10.7857 23.2548 10.617 23.176 10.485Z" fill="white"/>
</svg>

<svg xmlns="http://www.w3.org/2000/svg" viewBox="0 0 32 32"><path fill="#fff" fill-rule="evenodd" d="M0 0h32v32H0V0Zm11.27 14.93a1.76 1.76 0 0 1 .96-.292h2.11V25.28h-2.924v-7.215L8.909 19.95l-2.506-1.886v3.766l-2.908 2.186v-9.38h2.092c.342.003.675.105.96.293.241.15 2.212 1.823 2.362 1.95.15-.129 2.12-1.801 2.362-1.95Zm3.494-.292h3.285l.198.322v.002c1.361 2.22 1.372 2.237 1.594 2.616a.786.786 0 0 1 .01.952c-.217.36-1.802 2.95-1.802 2.95h-3.285l1.9-3.114a.516.516 0 0 0-.013-.626 3058.06 3058.06 0 0 0-1.887-3.102Zm13.575 1.764c-.11-.189-1.088-1.764-1.088-1.764h-7.032l1.536 2.575h3.703l-1.529 2.505 1.705 2.862-1.643 2.703h3.001c.335-.548.786-1.305 1.08-1.8l.275-.46a.788.788 0 0 0-.008-.956c-.077-.13-.321-.523-.606-.98-.277-.444-.592-.95-.829-1.336l1.444-2.393a.789.789 0 0 0-.009-.956Zm-6.764 3.703c-.463.756-1.237 2.023-1.382 2.27a.76.76 0 0 0-.009.92c.145.241.926 1.518 1.39 2.278.465-.76 1.245-2.038 1.39-2.278a.76.76 0 0 0-.008-.92c-.145-.247-.917-1.514-1.381-2.27ZM7.582 7.005v5.99h1.966v-5.99H7.583Zm5.771 5.99-1.13-5.037a1.186 1.186 0 0 0-.41-.679 1.136 1.136 0 0 0-.755-.274H9.854l1.35 5.99h2.151Zm.296-5.99v5.99h1.966v-5.99H13.65Zm2.847 2.117c.183.107.392.163.604.16.21.003.417-.052.599-.16a1.199 1.199 0 0 0 .59-1.037 1.152 1.152 0 0 0-.16-.6 1.213 1.213 0 0 0-.43-.43 1.153 1.153 0 0 0-.6-.16 1.204 1.204 0 0 0-1.038.59 1.149 1.149 0 0 0-.16.6 1.19 1.19 0 0 0 .595 1.038Zm2.097-2.117v5.99h1.966v-5.99h-1.966Zm4.582 3.48a4.467 4.467 0 0 0-.127-.207.513.513 0 0 1-.101-.278.54.54 0 0 1 .084-.27l1.671-2.725h-2.16a262.44 262.44 0 0 0-1.084 1.78c-.121.197-.227.367-.317.51-.09.144-.151.244-.185.3a.818.818 0 0 0-.135.405c.01.15.06.296.143.422.034.05.094.149.182.295.087.146.19.316.312.51.12.195.243.394.367.6.124.205.24.396.35.573l.367.595h2.16l-.422-.696a166.503 166.503 0 0 0-.797-1.308 45.43 45.43 0 0 1-.308-.506Z" clip-rule="evenodd"/></svg>
